X: 111
T:Have a drink 
R:Jig
M:6/8
L:1/8
Q:3/8=120
K:G
GA|
BAG ~E2D| EGD ~E2D| BAG ~E2D| EAA ABc|
BAG ~E2D| EGD ~E2D| DEG AGA| BGF G2z:|
GBd ~e2d| egd BAB| GBd ~e2d| eaa aga|
bag age| gfe dBA| BAG ~E2D| EGF G2D|
GBd~e2d| egd ~B2A| GBd edB| cea a2^a|
bag age| ged (3efg e| dBG ABc| BGF G2z|]
